.local/share/icons/Gruvbox-Plus-Dark/status/symbolic/microphone-sensitivity-low-symbolic.svg

<svg width="16" height="16" version="1.1" xmlns="http://www.w3.org/2000/svg">
  <defs>
    <style id="current-color-scheme" type="text/css">.ColorScheme-Text { color:#ebdbb2; } .ColorScheme-Highlight { color:#458588; } .ColorScheme-NeutralText { color:#fe8019; } .ColorScheme-PositiveText { color:#689d6a; } .ColorScheme-NegativeText { color:#fb4934; }</style>
  </defs>
  <path class="ColorScheme-Text" d="m8 1c-1.66 0-3 1.34-3 3v4c0 1.66 1.34 3 3 3s3-1.34 3-3v-4c0-1.66-1.34-3-3-3zm0 2c0.55 0 1 0.45 1 1v4c0 0.55-0.45 1-1 1s-1-0.45-1-1v-4c0-0.55 0.45-1 1-1zm-6 4v1c0 2.97 2.16 5.43 5 5.91v2.09h2v-2.09c2.84-0.48 5-2.94 5-5.91v-1h-2v1c0 2.23-1.77 4-4 4s-4-1.77-4-4v-1z" fill="currentColor" opacity=".3"/>
</svg>

<svg xmlns="http://www.w3.org/2000/svg" width="16" height="16" version="1.1">
 <path style="opacity:0.3;fill:#ebdbb2" d="M 8,0 C 6.34,0 5,1.34 5,3 V 8 C 5,9.66 6.34,11 8,11 9.66,11 11,9.66 11,8 V 3 C 11,1.34 9.66,0 8,0 Z M 8,2 C 8.55,2 9,2.45 9,3 V 8 C 9,8.55 8.55,9 8,9 7.45,9 7,8.55 7,8 V 3 C 7,2.45 7.45,2 8,2 Z M 2,7 V 8 C 2,10.97 4.16,13.43 7,13.91 V 16 H 9 V 13.91 C 11.84,13.43 14,10.97 14,8 V 7 H 12 V 8 C 12,10.23 10.23,12 8,12 5.77,12 4,10.23 4,8 V 7 Z"/>
</svg>
